docs/assets/snapbar-icon.svg

<svg width="64" height="72" viewBox="0 0 64 72" fill="none" xmlns="http://www.w3.org/2000/svg">
<path fill-rule="evenodd" clip-rule="evenodd" d="M12.8 0C7.49807 0 3.2 4.29807 3.2 9.6V14.3984C1.19069 17.0728 0 20.3974 0 24V56C0 64.8366 7.16344 72 16 72H48C56.8366 72 64 64.8366 64 56V24C64 15.1634 56.8366 8 48 8H36.6673C35.9055 3.45966 31.9568 0 27.2 0H12.8ZM32.2667 53.2C37.0531 53.2 40.9333 49.3198 40.9333 44.5333C40.9333 39.7469 37.0531 35.8667 32.2667 35.8667C27.4802 35.8667 23.6 39.7469 23.6 44.5333C23.6 49.3198 27.4802 53.2 32.2667 53.2ZM32.2667 61.8667C41.8396 61.8667 49.6 54.1063 49.6 44.5333C49.6 34.9604 41.8396 27.2 32.2667 27.2C22.6937 27.2 14.9333 34.9604 14.9333 44.5333C14.9333 54.1063 22.6937 61.8667 32.2667 61.8667Z" fill="url(#paint0_linear)"/>
<defs>
<linearGradient id="paint0_linear" x1="0" y1="0" x2="64" y2="72" gradientUnits="userSpaceOnUse">
<stop stop-color="#27C8DE"/>
<stop offset="1" stop-color="#90DC0F"/>
</linearGradient>
</defs>
</svg>

<svg width="64" height="72" viewBox="0 0 64 72" fill="none" xmlns="http://www.w3.org/2000/svg"><path fill-rule="evenodd" clip-rule="evenodd" d="M12.8 0a9.6 9.6 0 0 0-9.6 9.6v4.798A15.93 15.93 0 0 0 0 24v32c0 8.837 7.163 16 16 16h32c8.837 0 16-7.163 16-16V24c0-8.837-7.163-16-16-16H36.667c-.761-4.54-4.71-8-9.467-8H12.8zm19.467 53.2a8.667 8.667 0 1 0 0-17.333 8.667 8.667 0 0 0 0 17.333zm0 8.667c9.573 0 17.333-7.76 17.333-17.334 0-9.573-7.76-17.333-17.333-17.333-9.573 0-17.334 7.76-17.334 17.333 0 9.573 7.76 17.334 17.334 17.334z" fill="url(#a)"/><defs><linearGradient id="a" x1="0" y1="0" x2="64" y2="72" gradientUnits="userSpaceOnUse"><stop stop-color="#27C8DE"/><stop offset="1" stop-color="#90DC0F"/></linearGradient></defs></svg>
